X:1
T:He Never Said a Mumbalin’ Word
T:He Never Said a Mumbalin’ Word
T:African-American spiritual
T:Public Domain Courtesy of the Cyber Hymnal™
C:African-American spiritual
Z:Public Domain
Z:Courtesy of the Cyber Hymnal™
%%score ( 1 2 ) ( 3 4 )
L:1/8
Q:1/4=112
M:4/4
K:Eb
V:1 treble 
V:2 treble 
V:3 bass 
V:4 bass 
V:1
 G2 | [EG]2 [EG]2 ([F=B][FG]) [FB]2 | c6 G[G=A] | [GB][G=A][GB]G [^FA][=EG] [FA]2 | [DG]6 G2 | %5
w: 1.~They|cru- ci- fied * my|Lord, and He|nev- er said a mum- ba- lin’|word; They|
w: 2.~They|nailed Him to * a|tree, and He|nev- er said a mum- ba- lin’|word; They|
w: 3.~They|pierced Him in * the|side, and He|nev- er said a mum- ba- lin’|word; They|
w: 4.~The|blood came tricka- * lin’|down, and He|nev- er said a mum- ba- lin’|word; The|
w: 5.~He|bowed His head * and|died, and He|nev- er said a mum- ba- lin’|word; He|
 [EG]2 [EG]2 ([F=B][FG]) [FB]2 | c6 G[G=A] | [GB][G=A][GB]G [^FA][=EG] [FA]2 | [DG]6 GG | %9
w: cru- ci- fied * my|Lord, * *|||
w: nailed Him to * a|tree, * *|||
w: pierced Him in * the|side, * *|||
w: blood came tricka- * lin’|down, * *|||
w: bowed His head * and|died, * *|||
 [CE]6 [CG][DG] | D6 [_B,E][B,E] | [G,C]6 |] %12
w: |||
w: |||
w: |||
w: |||
w: |||
V:2
 G2 | x8 | (E2 F2 E2) G x | x3 G x4 | x6 G2 | x8 | (E2 G2 F2) G x | x3 G x4 | x6 GG | x8 | %10
 (C4 =B,2) x2 | x6 |] %12
V:3
 G,2 | [C,C]2 [C,C]2 ([D,G,][D,G,]) [D,G,]2 | G,6 [E,C][E,C] | %3
w: ~|~ ~ ~ * ~|~ ~ ~|
 [D,D][D,D][D,D][D,D] [D,C][D,C] [D,C]2 | [G,B,]6 G,2 | [C,C]2 [C,C]2 ([D,G,][D,G,]) [D,G,]2 | %6
w: ~ ~ ~ ~ ~ ~ ~|~ ~|~ ~ ~ * ~|
 G,6 [E,C][E,C] | [D,D][D,D][D,D][D,D] [D,C][D,C] [D,C]2 | [G,B,]6 G,G, | %9
w: ~ and He|nev- er said a mum- ba- lin’|word. Not a|
 ([C,G,]4 [E,G,]2) [E,G,][E,G,] | A,4 [G,,F,]2 [G,,F,][G,,F,] | [C,E,]6 |] %12
w: word, * not a|word, not a word.||
V:4
 G,2 | x8 | (E,2 D,2 C,2) x2 | x8 | x6 G,2 | x8 | (E,2 D,2 C,2) x2 | x8 | x6 G,G, | x8 | %10
 F,2 F,,2 x4 | x6 |] %12

